flaticon/transport/forklift.svg

<svg xmlns="http://www.w3.org/2000/svg" width="32" height="32" viewBox="0 0 24 24">
    <path d="M 23.921875 20.960938 L 22.960938 19.679688 C 22.839844 19.519531 22.558594 19.480469 22.398438 19.601562 L 20.28125 21.199219 C 20 21.398438 19.640625 21.398438 19.359375 21.238281 C 19.160156 21.121094 19 20.878906 18.960938 20.640625 L 18.800781 19.441406 L 18.800781 18 C 18.800781 17.761719 18.640625 17.601562 18.398438 17.601562 L 15.199219 17.601562 C 15.199219 17.332031 15.199219 17.066406 15.199219 16.800781 L 18.398438 16.800781 C 18.640625 16.800781 18.800781 16.640625 18.800781 16.398438 L 18.800781 15 L 18.960938 13.800781 C 19 13.558594 19.160156 13.320312 19.359375 13.199219 C 19.640625 13.039062 20 13.039062 20.28125 13.238281 L 22.398438 14.839844 C 22.558594 14.960938 22.839844 14.921875 22.960938 14.761719 L 23.921875 13.480469 C 24 13.398438 24 13.320312 24 13.199219 C 24 13.078125 23.921875 13 23.839844 12.921875 L 21.71875 11.320312 C 20.640625 10.519531 19.238281 10.441406 18.121094 11.121094 C 17.28125 11.640625 16.679688 12.480469 16.558594 13.441406 L 16.441406 14.398438 L 15.179688 14.398438 C 15.066406 5.992188 14.429688 0 11.199219 0 L 3.199219 0 C 2.960938 0 2.800781 0.160156 2.800781 0.398438 L 2.800781 2 C 2.800781 2.238281 2.960938 2.398438 3.199219 2.398438 L 3.605469 2.398438 L 2.402344 10.214844 C 2.164062 10.078125 1.890625 10 1.601562 10 C 0.71875 10 0 10.71875 0 11.601562 C 0 12.144531 0.273438 12.625 0.691406 12.914062 C 0.269531 13.289062 0 13.835938 0 14.441406 L 0 20.800781 C 0 22.558594 1.441406 24 3.199219 24 C 4.378906 24 5.410156 23.355469 5.96875 22.398438 L 9.238281 22.398438 C 9.417969 23.324219 10.21875 24 11.199219 24 C 12.183594 24 12.980469 23.324219 13.160156 22.398438 L 13.558594 22.398438 C 14.480469 22.398438 15.199219 21.679688 15.199219 20.761719 L 15.199219 20 L 16.441406 20 L 16.601562 20.960938 C 16.761719 21.921875 17.320312 22.761719 18.160156 23.28125 C 18.640625 23.601562 19.199219 23.761719 19.800781 23.761719 C 20.480469 23.761719 21.160156 23.519531 21.71875 23.121094 L 23.839844 21.519531 C 23.921875 21.441406 24 21.359375 24 21.238281 C 24 21.160156 24 21.039062 23.921875 20.960938 Z M 15.199219 15.199219 L 16.800781 15.199219 C 17 15.199219 17.160156 15.039062 17.199219 14.839844 L 17.359375 13.558594 C 17.480469 12.800781 17.878906 12.160156 18.519531 11.800781 C 19.398438 11.28125 20.441406 11.320312 21.238281 11.921875 L 23.039062 13.28125 L 22.558594 13.921875 L 20.761719 12.558594 C 20.238281 12.160156 19.519531 12.121094 18.960938 12.480469 C 18.519531 12.71875 18.238281 13.160156 18.160156 13.640625 L 18 14.878906 L 18 16 L 15.199219 16 Z M 2.320312 17.71875 C 1.71875 17.878906 1.199219 18.238281 0.800781 18.679688 L 0.800781 16.398438 L 12.796875 16.398438 C 12.800781 16.914062 12.800781 17.449219 12.800781 18 L 4.761719 18 C 4.667969 17.953125 4.585938 17.914062 4.5 17.878906 C 4.410156 17.839844 4.320312 17.804688 4.226562 17.769531 C 4.179688 17.753906 4.128906 17.738281 4.078125 17.71875 L 4.0625 17.71875 C 4.023438 17.707031 3.984375 17.699219 3.945312 17.6875 C 3.867188 17.664062 3.785156 17.644531 3.707031 17.640625 C 3.542969 17.613281 3.371094 17.601562 3.199219 17.601562 C 2.902344 17.601562 2.613281 17.640625 2.335938 17.71875 Z M 2.398438 13.199219 L 4 13.199219 L 4 15.601562 L 0.800781 15.601562 L 0.800781 14.441406 C 0.800781 13.761719 1.359375 13.199219 2.039062 13.199219 Z M 10.398438 2.398438 C 10.558594 2.398438 11 2.761719 11.960938 5.921875 C 12.5625 7.941406 12.734375 10.597656 12.78125 14.355469 L 10.898438 10.859375 L 11.480469 10.28125 C 11.640625 10.121094 11.640625 9.878906 11.480469 9.71875 C 11.320312 9.558594 11.078125 9.558594 10.921875 9.71875 L 10.199219 10.441406 C 10.132812 10.480469 10.078125 10.535156 10.039062 10.601562 L 9.320312 11.320312 C 9.160156 11.480469 9.160156 11.71875 9.320312 11.878906 C 9.398438 11.960938 9.480469 12 9.601562 12 C 9.71875 12 9.800781 11.960938 9.878906 11.878906 L 10.292969 11.46875 L 12.515625 15.601562 L 9.640625 15.601562 L 9.640625 14.761719 C 9.640625 13.921875 8.960938 13.238281 8.121094 13.238281 L 7.800781 13.238281 C 7.480469 13.238281 7.199219 12.960938 7.199219 12.640625 L 7.199219 11.121094 C 7.199219 10.28125 6.519531 9.601562 5.679688 9.601562 L 5.132812 9.601562 L 5.996094 2.398438 Z M 4.800781 12.800781 L 4.800781 10.386719 C 4.820312 10.378906 4.835938 10.371094 4.855469 10.359375 L 5.640625 10.359375 C 6.039062 10.359375 6.359375 10.679688 6.359375 11.078125 L 6.359375 12.601562 C 6.359375 13.359375 7 14 7.761719 14 L 8.078125 14 C 8.480469 14 8.800781 14.320312 8.800781 14.71875 L 8.800781 15.601562 L 4.800781 15.601562 Z M 3.601562 0.800781 L 11.199219 0.800781 C 14.121094 0.800781 14.398438 9.238281 14.398438 18 L 13.601562 18 C 13.601562 17.34375 13.597656 16.71875 13.597656 16.117188 C 13.621094 16.039062 13.625 15.960938 13.597656 15.878906 C 13.578125 11.121094 13.457031 8.0625 12.71875 5.679688 C 11.800781 2.640625 11.238281 1.601562 10.398438 1.601562 L 3.601562 1.601562 Z M 5.238281 2.398438 L 4.359375 9.601562 C 4.304688 9.601562 4.253906 9.617188 4.207031 9.640625 C 4.078125 9.707031 4 9.832031 4 10 L 4 12.398438 L 3 12.398438 C 3.0625 12.277344 3.109375 12.148438 3.144531 12.011719 C 3.171875 11.914062 3.1875 11.8125 3.195312 11.710938 C 3.195312 11.707031 3.195312 11.703125 3.195312 11.699219 C 3.199219 11.667969 3.199219 11.632812 3.199219 11.601562 C 3.199219 11.574219 3.199219 11.550781 3.199219 11.523438 C 3.1875 11.339844 3.148438 11.160156 3.082031 10.996094 L 4.441406 2.398438 Z M 1.601562 10.800781 C 1.929688 10.800781 2.210938 11 2.335938 11.285156 C 2.363281 11.371094 2.390625 11.460938 2.398438 11.546875 C 2.398438 11.566406 2.398438 11.582031 2.398438 11.601562 C 2.398438 11.625 2.398438 11.652344 2.394531 11.675781 C 2.378906 11.851562 2.300781 12.019531 2.160156 12.160156 C 2.121094 12.179688 2.089844 12.210938 2.070312 12.246094 C 1.9375 12.34375 1.777344 12.398438 1.601562 12.398438 C 1.160156 12.398438 0.800781 12.039062 0.800781 11.601562 C 0.800781 11.160156 1.160156 10.800781 1.601562 10.800781 Z M 3.199219 23.199219 C 1.878906 23.199219 0.800781 22.121094 0.800781 20.800781 C 0.800781 20.761719 0.800781 20.722656 0.804688 20.6875 C 0.804688 20.675781 0.804688 20.664062 0.804688 20.652344 C 0.808594 20.625 0.808594 20.597656 0.8125 20.574219 C 0.8125 20.558594 0.8125 20.546875 0.816406 20.535156 C 0.816406 20.507812 0.820312 20.484375 0.824219 20.457031 C 0.828125 20.445312 0.828125 20.433594 0.832031 20.421875 C 0.835938 20.394531 0.839844 20.367188 0.84375 20.339844 C 0.847656 20.332031 0.847656 20.320312 0.851562 20.3125 C 0.859375 20.277344 0.867188 20.242188 0.875 20.210938 C 0.878906 20.195312 0.882812 20.179688 0.886719 20.164062 C 0.890625 20.144531 0.898438 20.128906 0.902344 20.109375 C 0.910156 20.085938 0.914062 20.066406 0.921875 20.046875 C 0.925781 20.035156 0.929688 20.027344 0.933594 20.015625 C 1.1875 19.292969 1.785156 18.730469 2.558594 18.519531 L 2.550781 18.492188 C 2.566406 18.484375 2.582031 18.480469 2.597656 18.476562 L 2.601562 18.480469 C 2.679688 18.480469 2.761719 18.441406 2.839844 18.441406 L 2.921875 18.441406 C 3.121094 18.398438 3.320312 18.398438 3.519531 18.441406 L 3.601562 18.441406 C 3.679688 18.480469 3.761719 18.480469 3.878906 18.519531 C 4.078125 18.558594 4.28125 18.640625 4.441406 18.761719 C 4.457031 18.777344 4.480469 18.785156 4.507812 18.792969 C 5.160156 19.21875 5.59375 19.949219 5.597656 20.777344 C 5.597656 21.132812 5.515625 21.484375 5.359375 21.800781 C 5.351562 21.824219 5.34375 21.851562 5.339844 21.878906 C 4.945312 22.660156 4.132812 23.199219 3.199219 23.199219 Z M 11.199219 23.199219 C 10.519531 23.199219 10 22.679688 10 22 C 10 21.320312 10.519531 20.800781 11.199219 20.800781 C 11.878906 20.800781 12.398438 21.320312 12.398438 22 C 12.398438 22.679688 11.878906 23.199219 11.199219 23.199219 Z M 14.398438 20.761719 C 14.398438 21.238281 14 21.601562 13.558594 21.601562 L 13.160156 21.601562 C 12.992188 20.734375 12.28125 20.085938 11.382812 20.007812 C 11.375 20.007812 11.367188 20.007812 11.359375 20.007812 C 11.335938 20.003906 11.316406 20.003906 11.292969 20.003906 C 11.261719 20 11.230469 20 11.199219 20 C 11.167969 20 11.136719 20 11.105469 20.003906 C 11.085938 20.003906 11.0625 20.003906 11.042969 20.007812 C 11.035156 20.007812 11.027344 20.007812 11.019531 20.007812 C 10.121094 20.085938 9.410156 20.734375 9.238281 21.601562 L 6.296875 21.601562 C 6.355469 21.382812 6.386719 21.160156 6.398438 20.929688 C 6.398438 20.886719 6.398438 20.84375 6.398438 20.800781 C 6.398438 20.75 6.398438 20.699219 6.394531 20.648438 C 6.394531 20.617188 6.390625 20.585938 6.390625 20.554688 C 6.386719 20.539062 6.386719 20.527344 6.386719 20.511719 C 6.328125 19.867188 6.078125 19.277344 5.691406 18.800781 L 14.398438 18.800781 Z M 21.28125 22.519531 C 20.480469 23.078125 19.398438 23.160156 18.558594 22.640625 C 17.921875 22.238281 17.519531 21.601562 17.398438 20.878906 L 17.199219 19.558594 C 17.160156 19.359375 17 19.199219 16.800781 19.199219 L 15.199219 19.199219 L 15.199219 18.398438 L 18 18.398438 L 18 19.519531 L 18.199219 20.800781 C 18.28125 21.28125 18.558594 21.71875 19 21.960938 C 19.558594 22.320312 20.28125 22.28125 20.800781 21.878906 L 22.601562 20.519531 L 23.078125 21.160156 Z M 21.28125 22.519531"/>
    <path d="M 3.199219 20 C 2.761719 20 2.398438 20.359375 2.398438 20.800781 C 2.398438 21.238281 2.761719 21.601562 3.199219 21.601562 C 3.640625 21.601562 4 21.238281 4 20.800781 C 4 20.359375 3.640625 20 3.199219 20 Z M 3.199219 20"/>
</svg>

<svg xmlns="http://www.w3.org/2000/svg" width="32" height="32" viewBox="0 0 24 24">
    <path d="M23.922 20.96l-.961-1.28a.432.432 0 0 0-.563-.078l-2.117 1.597c-.281.2-.64.2-.922.04a.896.896 0 0 1-.398-.598l-.16-1.2V18c0-.238-.16-.398-.403-.398H15.2V16.8h3.2c.242 0 .402-.16.402-.403V15l.16-1.2c.039-.241.2-.48.398-.6.282-.16.641-.16.922.038l2.117 1.602c.16.12.442.082.563-.078l.96-1.282c.079-.082.079-.16.079-.28 0-.122-.078-.2-.16-.278l-2.121-1.602c-1.078-.8-2.48-.879-3.598-.199-.84.52-1.441 1.36-1.562 2.32l-.118.957H15.18C15.066 5.992 14.43 0 11.2 0h-8c-.24 0-.4.16-.4.398V2c0 .238.16.398.4.398h.405l-1.203 7.817A1.604 1.604 0 0 0 0 11.602c0 .543.273 1.023.691 1.312A2.044 2.044 0 0 0 0 14.441v6.36A3.21 3.21 0 0 0 3.2 24c1.179 0 2.21-.645 2.769-1.602h3.27c.179.926.98 1.602 1.96 1.602.985 0 1.781-.676 1.961-1.602h.399a1.62 1.62 0 0 0 1.64-1.636V20h1.242l.16.96c.16.962.72 1.802 1.56 2.321.48.32 1.038.48 1.64.48.68 0 1.36-.241 1.918-.64l2.12-1.601c.083-.079.161-.16.161-.282 0-.078 0-.199-.078-.277zm-8.723-5.76h1.602c.199 0 .36-.16.398-.36l.16-1.281c.121-.758.52-1.399 1.16-1.758.88-.52 1.922-.48 2.72.12l1.8 1.36-.48.64-1.797-1.362a1.57 1.57 0 0 0-1.801-.079 1.6 1.6 0 0 0-.8 1.16L18 14.88V16h-2.8zM2.32 17.718c-.601.16-1.12.52-1.52.96V16.4h11.997c.004.515.004 1.05.004 1.601H4.76a5.696 5.696 0 0 0-.535-.23c-.046-.016-.097-.032-.148-.051h-.016c-.039-.012-.078-.02-.117-.032a1.03 1.03 0 0 0-.238-.046 3.108 3.108 0 0 0-.508-.04c-.297 0-.586.04-.863.118zm.078-4.52H4v2.403H.8v-1.16c0-.68.56-1.243 1.24-1.243zm8-10.8c.16 0 .602.363 1.563 3.523.601 2.02.773 4.676.82 8.433l-1.883-3.496.582-.578a.39.39 0 0 0 0-.562.385.385 0 0 0-.558 0l-.723.722a.45.45 0 0 0-.16.16l-.719.72a.385.385 0 0 0 0 .558c.078.082.16.121.282.121.117 0 .199-.04.277-.121l.414-.41 2.223 4.133H9.64v-.84c0-.84-.68-1.524-1.52-1.524h-.32a.614.614 0 0 1-.602-.597v-1.52c0-.84-.68-1.52-1.52-1.52h-.546l.863-7.203zM4.801 12.8v-2.414a.357.357 0 0 0 .054-.028h.786c.398 0 .718.32.718.72v1.523C6.36 13.359 7 14 7.762 14h.316c.402 0 .723.32.723.719v.883h-4zM3.6.8H11.2C14.121.8 14.4 9.238 14.4 18h-.797c0-.656-.004-1.281-.004-1.883a.382.382 0 0 0 0-.238c-.02-4.758-.141-7.816-.88-10.2-.917-3.038-1.48-4.077-2.32-4.077H3.602zm1.637 1.597L4.36 9.602a.34.34 0 0 0-.152.039A.383.383 0 0 0 4 10v2.398H3a1.833 1.833 0 0 0 .195-.687v-.012c.004-.031.004-.066.004-.097v-.079a1.699 1.699 0 0 0-.117-.527l1.36-8.598zm-3.636 8.403c.328 0 .609.199.734.484.027.086.055.176.062.262v.055c0 .023 0 .05-.003.074a.778.778 0 0 1-.235.484c-.039.02-.07.05-.09.086a.801.801 0 0 1-1.27-.645c0-.44.36-.8.802-.8zm1.597 12.398a2.404 2.404 0 0 1-2.394-2.512v-.035c.004-.027.004-.054.007-.078 0-.015 0-.027.004-.039 0-.027.004-.05.008-.078.004-.012.004-.023.008-.035l.012-.082c.004-.008.004-.02.008-.027a802.183 802.183 0 0 1 .035-.148c.004-.02.011-.036.015-.056.008-.023.012-.043.02-.062l.012-.031a2.37 2.37 0 0 1 1.625-1.496l-.008-.028c.015-.008.031-.012.047-.015l.004.003c.078 0 .16-.039.238-.039h.082c.2-.043.398-.043.598 0h.082c.078.04.16.04.277.079.2.039.402.12.562.242a.15.15 0 0 0 .067.031 2.385 2.385 0 0 1 1.09 1.984c0 .356-.082.707-.239 1.024a.457.457 0 0 0-.02.078 2.402 2.402 0 0 1-2.14 1.32zm8 0C10.52 23.2 10 22.68 10 22c0-.68.52-1.2 1.2-1.2.679 0 1.198.52 1.198 1.2 0 .68-.52 1.2-1.199 1.2zm3.2-2.437c0 .476-.399.84-.84.84h-.399a1.968 1.968 0 0 0-1.777-1.594h-.024c-.023-.004-.043-.004-.066-.004C11.262 20 11.23 20 11.199 20s-.062 0-.094.004c-.02 0-.043 0-.062.004h-.023a1.977 1.977 0 0 0-1.782 1.594H6.297c.058-.22.09-.442.101-.672v-.13c0-.05 0-.1-.003-.152 0-.03-.004-.062-.004-.093-.004-.016-.004-.028-.004-.043A3.164 3.164 0 0 0 5.69 18.8h8.707zm6.882 1.758c-.8.558-1.883.64-2.722.12a2.558 2.558 0 0 1-1.16-1.761l-.2-1.32c-.039-.2-.199-.36-.398-.36h-1.602v-.8H18v1.12l.2 1.282c.081.48.359.918.8 1.16.559.36 1.281.32 1.8-.082l1.802-1.36.476.641zm0 0"/>
    <path d="M3.2 20c-.438 0-.802.36-.802.8 0 .438.364.802.801.802.442 0 .801-.364.801-.801 0-.442-.36-.801-.8-.801zm0 0"/>
</svg>
